flutter/assets/question_mark.svg

<svg width="11" height="16" viewBox="0 0 11 16" fill="none" xmlns="http://www.w3.org/2000/svg">
<path d="M7.05597 16H3.94409V13.4754H7.05597V16ZM7.09206 10.1662V11.599H3.94406V7.40292H5.49987C6.80252 7.40292 7.85174 6.41371 7.85174 5.18556C7.85174 3.95742 6.80252 2.9682 5.49987 2.9682C4.19722 2.9682 3.148 3.95742 3.148 5.18556H0C0 2.31995 2.46043 0 5.50013 0C8.53932 0 11 2.31971 11 5.18532C11 7.53932 9.37176 9.51794 7.09206 10.1662Z" fill="#00B4E9"/>
</svg>

<svg width="11" height="16" version="1.1" viewBox="0 0 2.9104 4.2333" xml:space="preserve" xmlns="http://www.w3.org/2000/svg"><g transform="translate(-101.17 -154.74)"><g transform="matrix(.26458 0 0 .26458 101.17 154.74)" fill="none"><path d="m7.056 16h-3.1119v-2.5246h3.1119zm0.03609-5.8338v1.4328h-3.148v-4.1961h1.5558c1.3026 0 2.3519-0.98921 2.3519-2.2174 0-1.2281-1.0492-2.2174-2.3519-2.2174s-2.3519 0.98922-2.3519 2.2174h-3.148c0-2.8656 2.4604-5.1856 5.5001-5.1856 3.0392 0 5.4999 2.3197 5.4999 5.1853 0 2.354-1.6282 4.3326-3.9079 4.9809z" fill="#00b4e9"/></g></g></svg>
